X:1
T:bearb. Georg Pfeifer 06/2012
T:Sonatine
T:Op.49 Nr.2
T:Ludwig van Beethoven (1770 - 1827) arr. Georg Pfeifer
%%score [ 1 2 3 ]
L:1/8
Q:1/4=132
M:4/4
K:G
V:1 treble nm="Violine"
V:2 treble nm="Horn in F"
V:3 bass nm="Fagott"
V:1
!f!"^Allegro ma non troppo""^Allegro" [G,DBg]4 (3(DGB (3dcA | G2)!p! (G2 F2 G2 | %2
 A3)!<(! (A B3) (B!<)! |!f!!>(! d2 (3c/d/c/B/c/!>)!!p! .B2) z2 |!f! [G,DBg]4 (3(dgb (3d'c'a | %5
 g2)!p! (g2 f2 g2 | a3)!<(! (a b3) (b!<)! |!f!!>(! d'2 (3c'/d'/c'/ b/c'/!p! b!>)!!<(!c'^c'd'!<)! | %8
 ^d'!f!e') z (e' =d'c'ba | (^c'd')) z!>(! ((d' =c'bag) | fedc BAGF | %11
!mp!!<(! (G)!>)!(3A/G/F/GA Bc^cd!<)! |!f!!>(! (^d!p!e))!>)! z!<(! ((e =dcBA))!<)! | %13
!mf!!<(! (^de) z e (e^cAG |!f! .F2)!<)! (3(afd .c2) (3(afc | .B2) (3(gdB .G2) (3(dBG | %16
 .F2) (3(afd .c2) (3(afc) | .B2 (3(gdB .G2) (3(dBG | .D2) (3(dBG .D2) (3(dBG | %19
 .D2) z2 z!p! (.A.A.A) |!<(! (d2 ^c2 d2 e2!<)! |!f!!>(! gf!p! e2)!>)! z (.A.A.A) | %22
!<(! (e2 d2 e2 f2!<)! |!f!!>(! ag!mf! f2)!>)! z!f! (agf) | (!tenuto!fe).e.e d (agf) | %25
 (!tenuto!fe).e.e d (agf) | (!tenuto!fe) z!<(! .e (!tenuto!ed) z .d!<)! |!f!!>(! (d^cBA ^GABc!>)! | %28
!mp!!<(! (d2) ^c2 d2 e2!<)! |!f!!>(! gf!mp! e2)!>)! z (.A.A.A) |!<(! (e2 d2 e2 f2!<)! | %31
!f!!>(! ag f2)!>)! z!mf! (agf) | (fe).e.e .d (agf) | (fe).e.e!f! .d (agf) | (fege) (ed)(d^c | %35
!f!!>(!{/d)} (3(agf (3ed^c (3BAG (3FED)!>)! |!p! .^C2 .C2 .C2 .C2 |!<(! (3(DEF (3GAB (3^cde (3fga | %38
 .g2) .g2 .g2 .g2 |!f!!>(!{/f} (3(a!<)!gf (3ed^c (3BAG (3FED)!>)! |!mp! .C2 .C2 .C2 .C2 | %41
 (3(B,DG (3BGE D2){/F} (E2 |!p!!<(! (3(D)EF (3GAB (3^cde (3fga)!<)! |!f! [db]8 | .a2 .g2 .f2 .e2 | %45
 (3(agf (3ed^c (3BAG (3FED) | B8 |!>(! .A2 .G2 .F2 .E2!>)! | .D2 (3(afd .^c2) (3(gec | %49
 .d2)!<(! (3(AFD .^C2) (3(GEC | .D2) (3(AFD .^C2) (3(GEC | %51
!f! .D2) !tenuto!.D2 !tenuto!.D2!<)! z2 :|!f! d4 (3d!p!(=fe (3dcB |!p! (A2) ^G2 A2 B2 | %54
!<(! c2 d2 e2 d2)!<)! |!f!{ce} !arpeggio![xa-]4 (3a!>(!(c'b (3agf)!>)! | e2 (^d2 e2 f2 | %57
 g3 f/g/ agfe | ^d2) z .b .a2 z .f | .g2 z .g .f2 .g2 | .f2 z .b .a2 z .f | .g2 z .g .f2 .g2 | %62
 .f2 z2 z4 | .g2 z2 z4 | ((c'bc'b c'bag) | (fedc BAGF)) |!f! [G,DBg]4 (3(DGB (3dcA | %67
 G2)!p! (G2 F2 G2 | A3)!<(! (A B3) (B!<)! |!>(! d2 (3c/d/c/B/c/ .B2)!>)! z2 | %70
!f! [G,DBg]4 (3(dgb (3d'c'a | g2)!p!!<(! (g2 f2 g2 | a2) z (a b2) z (b!<)! | c'ga=f egfd | %74
!f!{/c)} (3(g=fe!>(! (3dcB (3AG=F (3EDC)!>)! |!p! .B,2 .B,2 .B,2 .B,2 | %76
!<(! (3(CDE (3=FGA (3Bcd (3e=fg!<)! |!f! .=f2) .f2 .f2 .f2 | (3(edc!>(! (3BAG (3=FED (3CB,A,!>)! | %79
!p! .^G,2) .G,2 .G,2 .G,2 | .A,2!<(! (A4 G2)!<)! |!f! F2 (3(afd .c2) (3(afc | %82
 .B2) (3(gdB .G2) (3(dBG | .F2) (3(afd .c2) (3(afc) | .B2 (3(gdB .G2) (3(dBG | %85
 .D2) (3(dBG .D2) (3(dBG | .D2) z2 z!p! (.D.D.D) | (G2!<(! F2 G2 A2!<)! | %88
!>(! cB A2)!>)! z (.D.D.D) | (A2!<(! G2 A2 B2!<)! |!>(! dc B2)!>)! z!mp! (dcB) | %91
!>(! (BA).A.A!>)! G!mf!(dcB) |!>(! (BA).A.A!>)! G(dcB) | (BA) z .A (AG) z .G | %94
!>(! .F.G.A.B .c.d.e.f!>)! |!p! (g2!<(! f2 g2 a2!<)! |!>(! !tenuto!c'b a2)!>)! z (.d.d.d) | %97
 (a2!<(! g2 a2 b2!<)! |!>(! d'c' b2)!>)! z!mp!!<(! (d'c'b)!<)! | %99
!>(! (ba).a.a!>)! .g!mf!!<(!(d'c'b)!<)! |!>(! (ba).a.a!>)! .g!mf!(d'c'b) | %101
!<(! (bac'a) (ag)(gf!<)! |!f!{/g)} (3(d'c'b!>(! (3agf (3edc (3BAG!>)! |!p! .F2) .F2 .F2 .F2 | %104
 (3(GAB!<(! (3cde (3fga (3bc'd')!<)! | .c'2 .c'2 .c'2 .c'2 | %106
!f!{/b} (3(d'c'b (3agf!>(! (3edc (3BAG!>)! |!mf! .=F2) .F2 .F2 .F2 | %108
!<(! (3(EAc (3ecA G2!<)! (3A/B/A/G/A/ | (3(G)AB!<(! (3cde (3fga (3bc'd'!<)! |!mf! e'8) | %111
!>(! .d'2 .c'2 .b2 .a2!>)! | (3(d'c'b (3agf (3edc (3BAG |!mf! e8) |!>(! .d2 .c2 .B2 .A2!>)! | %115
 .G2!f! (3(d'bg .f2) (3(c'af | .g2) (3(dBG .F2) (3(cAF | .G2) (3(d'bg .f2) (3(c'af) | %118
 .g2!<(! (3(dBG .F2) (3(cAF | .G2) (3(cAF .G2) (3(cAF | .G2)!<)! z2 [DAf]2 z2 | [G,DBg]2 z2 z4 |] %122
 x8 |"^Tempo di Minuetto"!p![Q:1/4=120]"^Allegretto" (G>F) | F4 (F>G) | G4!<(! ((G>B) | %126
 d2-!<)! dedc |!>(! (!tenuto!B2 G))!>)! z (G>F) | F4 (F>G) | G4!<(! ((G>B) | d3!<)!!>(! ^c=cA | %131
 G2)!>)! z2 B>B |!>(! (B2 c)!>)! z c>c |!>(! (c2 B)!>)! z B>B | (BA!<(!^GA^de!<)! | %135
!>(! !tenuto!G2 F)!>)! z!mf! (g>f) | f4 (f>g) | g4!<(! ((g>b) | d'2-!<)! d'e'd'c' | %139
!>(! (!tenuto!b2 g))!>)! z (g>f) | f4 (f>g) | g4 ((g>b)) | d'2!f! (d'/^c'/d'/c'/d'/=c'/b/a/ | %143
 .g2) z2!mp! (d2 | g2) z2 (f2 | e2) z2 d2 | (.d2 .d2 .d2) | d2 z2 z2 | %148
 z/!mf! (d/e/f/g/a/b/^c'/.d').d' | z/!<(! (d/e/f/g/a/b/^c'/.d').d'!<)! | (bagfed | %151
!f!{/^c)} a3 (b/a/ .g)(a/g/ | .f)(g/f/ .e)(f/e/ .d)(e/d/) | ^c2 z (c d/c/B/c/ | %154
 d2) z (d e/d/^c/d/ | a3) (b/a/ .g)(a/g/) | .f(g/f/ .e)(f/e/ .d)(e/d/ | .^c2) z ((c e/d/c/d/) | %158
 e>g d2) (^c2 | (d)!<(!e/f/g/a/b/^c'/ .d').d'!<)! |!>(! (d'a) (af) (fd)!>)! | (d4 e>^c | %162
 (d)!<(!e/f/g/a/b/^c'/!<)! .d').d' |!f!!>(! (3(d'a).a (3(af).f (3(fd).d!>)! |!mf!!>(! (d4 e>^c | %165
 d>)!>)!!mp!(d^c>d=c>d | B>dB>d^c>e | d>)!p!(d^c>d=c>d | B>dB>d^c>e) | d>!pp!(d"^rall."^c>d=c>d | %170
 B>dA>d)"^a tempo"!p!(G>F) | F4 (F>G) | G4!<(! ((G>B) | d2-!<)! dedc) | %174
!>(! (!tenuto!B2 G)!>)! z (G>F) | F4 (F>G) | G4!<(! ((G>B) | d3!<)!!>(! ^c=cA | %178
 G2)!>)! z2!mp! B>B | (B2 c) z c>c | (c2 B) z B>B |!<(! (BA^GA^de!<)! | %182
!>(! !tenuto!G2 F)!>)! z!mf! (g>f) | f4 (f>g) | g4!<(! ((g>b) | d'2-!<)! d'e'd'c' | %186
!>(! (!tenuto!b2 g))!>)! z (g>f) | f4 (f>g) | g4!<(! ((g>b) | %189
 d'2)!<)!!f! (d'/^c'/d'/c'/d'/=c'/b/a/ | .g2) z2 c>e |[K:C] g3 .e.f.d | c2 c (.G.c.e) | g3 .e.f.d | %194
 c2 z ((cBc) | (dB)).G ((dcd) | (ec)).G ((ede)) | (fgaefd) | (c2 B)(Gce | g3) .e.f.d | %200
 c2 c (.G.c.e) | g3 .e.f.d | c2 z ((cBc) | (dB)).G ((dcd)) | ((ec).G) ((ede) | (^fc)).A ((fef) | %206
 (gd)) .B(gab | c'bag^fe | dcBAG^F ||[K:G] ED) z2 z2 | z2 z2!p! (G>F) | F4 (F>G) | G4!<(! ((G>B) | %213
 d2-!<)! dedc |!>(! (!tenuto!B2 G))!>)! z (G>F) | F4 (F>G) | G4!<(! ((G>B) | d3!<)!!>(! (^c=cA | %218
 G2))!>)! z2 B>B |!>(! (B2 c)!>)! z c>c |!>(! (c2 B)!>)! z B>B | (BA!<(!^GA^de!<)! | %222
!>(! !tenuto!G2 F)!>)! z!mf! (g>f) | f4 (f>g) | g4!<(! ((g>b) | d'2-!<)! d'e'd'c' | %226
!>(! (!tenuto!b2 g))!>)! z (g>f) | f4 (f>g) | g4 ((g>b)) | d'2!f! (d'/^c'/d'/c'/d'/=c'/b/a/ | %230
 .g2) z2!mf! (g>=f) | =f2 z2 (f>e) |!>(! e2 z2 (e>d) | d2 z2 (d>c) | c2 z2 (c>A)!>)! | %235
!>(! (GF d3) G | (GF d3) B!>)! |!p! z (A/c/) z (G/B/) z (F/A/) | %238
 z/!<(! (G/A/B/c/d/e/f/g/a/b/!<)!g/) |!mf! .f d'2 ((d' c'/b/a/g/) | %240
!<(! f/)(d'/^c'/d'/c'/d'/c'/d'/=c'/b/a/g/)!<)! |!f! (^d'/e'/d'/e'/ g2) (b/a/g/a/ | %242
 g2) z2 !breath![DAf]2 | [G,DBg]2 z2 |] %244
V:2
!f! G4 z4 | z8 | z8 | z8 |!f! G4 z4 | z!p! d2 d2 d2 d- | d d2 d2 d2 d | z8 | z2 A2 z4 | z2 A2 z4 | %10
 c2 z2 d2 z2 | G2 z2 z4 | z2 A2 z4 | z2 A2 z4 |!f! A8 | B8 | A8 | B8 | A2 B2 A2 B2 | F2 z2 z4 | %20
 z!p!!<(! A2 A2 A2 A-!<)! | A!f!!>(! A2 A!>)!!p! A2 z2 | z A2 A2 A2 A- | A A2 A d2 z2 | %24
!f!!>(! (B4!p! .A2)!>)! z2 |!f!!>(! (B4!p! .A2)!>)! z2 | z2 G2 z2 ^G2 | A2 .A,2 z4 | %28
 z A2 A2 A2 A- | A A2 A z4 | z A2 A2 A2 A- | A A2 A z4 |!mf!!>(! (B4!p! A2)!>)! z2 | %33
!mf!!>(! (B4!p! A2)!>)! z2 | z2!f! G2 A2 A,2 |!mf! D2 z2 z4 |!p! A8 | F2 z2 z4 | A8 | F2 z2 z4 | %40
!mp! A,8 | z2 (G,2 F,2) (G,2 |!p! F,2) z2 z4 | G8 | .F2 .E2 .D2 .^C2 | z8 | G8 | %47
!>(! .F2 .E2 .D2 .^C2!>)! | .D2 A2- A4 |!<(! A8- | A2 (3(AFD .^C2) (3(GEC | %51
!f! .D2) !tenuto!.F,2 !tenuto!.F,2 z2!<)! :|!f! =F4 z4 | z!p! E2 E2 E2 E- |!<(! E E2 E2 E2 E!<)! | %55
 z8 | z B2 B2 B2 B- | B B2 B2 ^A2 A | B z z .G .F2 z .d | .e2 z .e .^d2 .e2 | .^d2 z .G .F2 z .=d | %61
 .e2 z .e .^d2 .e2 | ^d2 z2 z4 | (E^DED E=DCB,) | z8 | z4 C4 | G4 z4 | z8 | z8 | z8 |!f! G4 z4 | %71
 z!p! d2 d2 d2 d- | d d2 d2 d2 d | z8 | z8 | G,8 | E,2 z2 z4 |!f! G8 | E2 z2 z4 | z8 | %80
!mf!!<(! C4 ^C4!<)! |!f! D4 A4 | G8 | F8 | B8 | A2 B2 A2 B2 | F2 z2 z4 | z!<(! D2 D2 D2 D-!<)! | %88
!>(! D D2 D2!>)! z z2 | z D2 D2 D2 D- | D D2 D2 D2 z | (E4 .D2) z2 | (E4 .D2) z2 | z2 .E2 z2 .E2 | %94
 .D2 z2 z4 |!p! z!<(! d2 d2 d2 d-!<)! |!>(! d d2 d2!>)! z z2 | z d2 d2 d2 d- | d d2 d2 z z2 | %99
 (e2 f2 .d2) z2 | (e2 f2 .d2) z2 | z2!<(! c2 d2 D2!<)! | .G2 z2 z2"^," z2 | C8 | .B,2 z2 z4 | A8 | %106
 .B2 z2 z4 |!mf! G4 ^G4 |!<(! A4 B2 c2!<)! | B2 z2 z4 |!mf! c8 |!>(! .B2 .A2 .G2 .F2!>)! | z8 | %113
!mf! c8 |!>(! .B2 .A2 .G2 .F2!>)! |!f! B4 c4 | B4 c4 | B4 c4 | B4!<(! c4 | B2 c2 B2 c2 | %120
 B2!<)! z2 d2 z2 | G2 z2 z4 |] x8 |!p! .B2 | c2 z2 .c2 | B2 z2 .B2 | A2 z2 .A2 | B2 z2 .B2 | %128
 c2 z2 .c2 | B2 z2 .B2 | z2 c2 c2 | B2 z2 z2 |!>(! (F2 G)!>)! z z2 |!>(! (G2 F)!>)! z z2 | %134
 z2 C2 C2 | (B,2 A,) z z2 |!mf! c2 z2 .c2 | B2 z2 .B2 | A2 z2 .A2 | B2 z2 .B2 | c2 z2 .c2 | %141
 B2 z2 .B2 | z2!f! c2 c2 | B2 z2!mp! (B2 | e2) z2 (d2 | c2) z2 B2 | (.c2 .c2 .c2) | %147
 B!mf!!<(! (DEFGA | B2)!<)! z2!mf! (A2 | G2) z2 F2 | z4 z2 | z4 z2 | z4 z2 | z6 | z6 | z6 | z6 | %157
 z6 | z G .F2 (E2 | F2) z2 z2 | z6 | z2 F2 G2 | F2 z2 z2 | z6 | z2!>(! F2 G2!>)! |!mp! F2 z2 F2 | %166
 G2 z2 E2 | F2 z2 F2 | G2 z2 E2 | F2"^rall." z2 z2 | z2 z2"^a tempo"!p! .B2 | c2 z2 .c2 | %172
 B2 z2 .B2 | A2 z2 .A2 | B2 z2 .B2 | c2 z2 .c2 | B2 z2 .B2 | z2 c2 c2 | B2 z2 z2 | %179
!mp! (F2 G) z z2 | (G2 F) z z2 | z2 C2 C2 |!>(! (B,2 A,)!>)! z z2 |!mf! c2 z2 .c2 | B2 z2 .B2 | %185
 A2 z2 .A2 | B2 z2 .B2 | c2 z2 .c2 | B2 z2 .B2 | z2 c2 c2 | B2 z2 z2 |[K:C] e3 .G.A.F | %192
 E2 E (.G.c.e) | e3 .G.A.F | E2 z2 z2 | z2 .D2 z2 | z2 .E2 z2 | z2 z ((^CDF) | (E2 D)) z z2 | %199
 e3 .G.A.F | E2 E (.G.c.e) | e3 .G.A.F | E2 z2 z2 | z2 .D2 z2 | z2 E2 z2 | z2 D2 z2 | z2 D2 z2 | %207
 z2 D2 z2 | z4 z2 ||[K:G] z2 x4 | z2 z2!p! .B2 | c2 z2 .c2 | B2 z2 .B2 | A2 z2 .A2 | B2 z2 .B2 | %215
 c2 z2 .c2 | B2 z2 .B2 | z2 c2 c2 | B2 z2 z2 |!>(! (F2 G)!>)! z z2 |!>(! (G2 F)!>)! z z2 | %221
 z2 C2 C2 | (B,2 A,) z .B2 |!mf! .c2 z2 .c2 | B2 z2 .B2 | A2 z2 .A2 | B2 z2 .B2 | c2 z2 .c2 | %228
 B2 z2 .B2 | z2!f! c2 c2 | B2 z2 z2 |!mf! z G2 G2 G- | G!>(! E2 E2 E- | E E2 E2 E- | %234
 E E2 E2 E!>)! |!>(! C2 A,2 B,2 | C2 A,2 B,2!>)! |!p! .C2 z2 z2 | G2 z2 z B |!mf! c2 A2 B2 | %240
!<(! c2 A2 B2!<)! |!f! c2 B2 c2 | .B2 z2 !breath!C2 | B,2 z2 |] %244
V:3
!f! G,,4 z4 | z2!p! ((B,2 A,2 G,2) |!<(! F,2 D,2 G,2 =F,2!<)! | %3
!f!!>(! E,2 F,2!p! G,)!>)!!<(! (G,B,D)!<)! |!f! G,4 z4 | z2[K:tenor]!p! B2 A2!<(! G2 | %6
 F2 D2 G2 =F2!<)! |!f!!>(! EGFA!p! G2!>)! z2 | z2 C2 z4 | z2 ^C2 z4 |[K:bass][K:bass] C2 z2 D2 z2 | %11
 G,2 z2 z4 | z2 C,2 z4 | z2 ^C,2 z4 |!f! (3D,F,A, (3D,F,A, (3D,F,A, (3D,F,A, | %15
 (3D,G,B, (3D,G,B, (3D,G,B, (3D,G,B, | (3D,F,A, (3D,F,A, (3D,F,A, (3D,F,A, | %17
 (3D,G,B, (3D,G,B, (3D,G,B, (3D,G,B, | (3D,F,A, (3D,G,B, (3D,F,A, (3D,G,B, | D,2 z2 z4 | %20
!p!!<(! F2 G2 F2 ^C2!<)! |!f!!>(! D2 ^C2!p! A,2!>)! z2 |!<(! G2 F2 E2 D2!<)! | %23
!f!!>(! ^C2 D2 D2!>)! z2 |[K:tenor][K:tenor]!f!!>(! (G4!p! .F2)!>)! z2 | %25
!f!!>(! (G4!p! .F2)!>)! z2 | z2 G2 z2 ^G2 | A2 .A,2 z4 |!mf! F2 G2 F2 ^C2 | D2 A,2 .A,2 z2 | %30
 G2 F2 E2 D2 | ^C2!mp! D2!p! .D2 z2 |!mf!!>(! (G4!p! F2)!>)! z2 |!mf!!>(! (G4!p! F2)!>)! z2 | %34
 z2[K:bass]!f! G,2 A,2 A,,2 |!mf! D,2 z2 z4 |!p! (3E,G,A, (3E,G,A, (3E,G,A, (3E,G,A, | D,2 z2 z4 | %38
 (3(^C,E,A,) (3(C,E,A,) (3(C,E,A,) (3(C,E,A,) | D,2 z2 z4 | %40
!mp! (3(D,F,A,) (3(D,F,A,) (3(D,F,A,) (3(D,F,A,) | (G,,4 A,,2) (A,,2 |!p! D,2) z2 z4 | %43
 (3z!<(! (G,,A,, (3B,,^C,D, (3E,F,G, (3A,B,^C!<)! |!f! .D2) .G,2 .A,2 .A,,2 | z8 | %46
 (3z!mp!!<(! (G,,A,, (3B,,^C,D, (3E,F,G, (3A,B,^C!<)! |!f!!>(! .D2) .G,2 .A,2 .A,,2!>)! | %48
!mf! (3D,F,A, (3D,F,A, (3D,G,A, (3D,G,A, |!<(! (3D,F,A, (3D,F,A, (3D,G,A, (3D,G,A, | %50
 (3D,F,A, (3D,G,A, (3D,F,A, (3D,G,A, |!f! .F,2 !tenuto!.D,2 !tenuto!.D,2!<)! z2 :|!f! D,4 z4 | %53
 z2!p! D2 C2 ^G,2 |!<(! A,2 B,2 C2 B,2!<)! |!f! (3A,CE (3AEC A,2 z2 | z2 A2 G2 ^D2 | E2 E2 C2 C2 | %58
 B,.B,.B,.B, .B,.B,.B,.B, | B,.B,.B,.B, .B,.B,.B,.B, | .B,,.B,.B,.B, .B,.B,.B,.B, | %61
 .B,.B,.B,.B, .B,.B,.B,.B, | (B,^A,B,A, B,=A,G,F,) | .E,2 z2 z4 | (A,^G,A,G, A,=G,F,E, | D,8) | %66
 G,,4 z4 | z2!p! ((B,2 A,2 G,2) | F,2!<(! D,2 G,2 =F,2!<)! |!>(! E,2 F,2 G,)!>)!!<(! (G,B,D)!<)! | %70
!f! G,4 z4 | z2[K:tenor]!p! B2 A2 G2 | F2!<(! D2 G2 =F2!<)! | E2 =F2 G2 G,2 | C2 z2 z4 | %75
[K:bass][K:bass]!p! (3D,=F,G, (3D,F,G, (3D,F,G, (3D,F,G, | C,2 z2 z4 | %77
!f! (3B,,D,G, (3B,,D,G, (3B,,D,G, (3B,,D,G, | C,2 z2 z4 | %79
!p! (3B,,D,E, (3B,,D,E, (3B,,D,E, (3B,,D,E, | (3C,E,A,!<(! (3C,E,A, (3^C,E,A, (3C,E,A,!<)! | %81
!f! (3D,F,A, (3D,F,A, (3D,F,A, (3D,F,A, | (3D,G,B, (3D,G,B, (3D,G,B, (3D,G,B, | %83
 (3D,F,A, (3D,F,A, (3D,F,A, (3D,F,A, | (3D,G,B, (3D,G,B, (3D,G,B, (3D,G,B, | %85
 (3D,F,A, (3D,G,B, (3D,F,A, (3D,G,B, | D,2 z2 z4 | B,2 C2 B,2 F,2 | G,2 F,2 D,2 z2 | %89
 C2!<(! B,2 A,2 G,2!<)! |!>(! F,2 G,2!>)! G,2 z2 | (C4 .B,2) z2 | (C4 .B,2) z2 | z2 .C2 z2 .^C2 | %94
 .D2 z2 z4 |!p! B,2 C2 B,2 F,2 | G,2 F,2 D,2 z2 | C2!<(! B,2 A,2 G,2!<)! | %98
!>(! F,2 G,2!>)! G, z z2 | (C4 .B,2) z2 | (C4 .B,2) z2 | z2!<(! C2 D2 D,2!<)! | .G,2 z2 z2 z2 | %103
 (3A,CD (3A,CD (3A,CD (3A,CD | .G,2 z2 z4 | (3F,A,D (3F,A,D (3F,A,D (3F,A,D | .G,2 z2 z4 | %107
!mf! (3B,,D,G, (3B,,D,G, (3B,,D,^G, (3B,,D,G, | (3C,E,A, (3C,E,A, (3D,G,B, (3D,F,C | G,2 z2 z4 | %110
!mf! (3z!<(! (C,D, (3E,F,G, (3A,B,C (3DEF!<)! |!>(! .G2) .C2 .D2 .D,2!>)! | z8 | %113
 (3z!mf!!<(! (C,D, (3E,F,G, (3A,B,C (3DEF!<)! |!>(! .G2) .C2 .D2 .D,2!>)! | %115
 (3G,,B,,D,!f! (3G,,B,,D, (3G,,C,D, (3G,,C,D, | (3G,,B,,D, (3G,,B,,D, (3G,,C,D, (3G,,C,D, | %117
 (3G,,B,,D, (3G,,B,,D, (3G,,C,D, (3G,,C,D, | (3G,,B,,D,!<(! (3G,,B,,D, (3G,,C,D, (3G,,C,D, | %119
 (3G,,B,,D, (3G,,C,D, (3G,,B,,D, (3G,,C,D, | G,,2!<)! z2 D,,2 z2 | G,,2 z2 z4 |] x8 |!p! G,D | %124
 A,DD,DA,D | G,DD,DG,D | F,DD,DF,D | G,DD,DG,D | A,DD,DA,D | G,DD,DG,D | z2 D,2 D,2 | G,2 G,,2 z2 | %132
!>(! (^D2 E)!>)! z z2 |!>(! (E2 D)!>)! z z2 | z2 C2 C2 | D,3 z z2 |!mf! A,DD,DA,D | G,DD,DG,D | %138
 F,DD,DF,D | G,DD,DG,D | A,DD,DA,D | G,DD,DG,D | z2!f! D,2 D,2 | G,2 .G,,2 z2 | %144
 z/!mp! (G,/A,/B,/C/D/E/F/.G).G | z/ (G,/A,/B,/C/D/E/F/.G).G | (FEFDEF | G) z z2 z2 | %148
 G2 z2!mf! (F2 | E2) z2 D2 | z2 (G,2 ^G,2 |!f! A,/)^C/E/C/ A,/C/E/C/ A,/C/E/C/ | %152
 A,/D/F/D/ A,/D/F/D/ A,/D/F/D/ | A,/E/G/E/ A,/E/G/E/ A,/E/G/E/ | A,/D/F/D/ A,/D/F/D/ A,/D/F/D/ | %155
 A,/^C/E/C/ A,/C/E/C/ A,/C/E/C/ | A,/D/F/D/ A,/D/F/D/ A,/D/F/D/ | %157
 !>!A,/E/G/E/ !>!^A,/E/G/E/ !>!B,/D/F/D/ | !>!G, z .A,2 (A,2 | D2) z2 z2 | z6 | z2 A,2 A,2 | %162
 D2 z2 z2 | z6 | z2!>(! A,2 A,2!>)! |!mp! D2 z2 D2 | D2 z2 D2 | D2 z2 D2 | D2 z2 D2 | %169
 D2"^rall." z2 z2 | z2 z2"^a tempo"!p! G,D | A,DD,DA,D | G,DD,DG,D | F,DD,DF,D | G,DD,DG,D | %175
 A,DD,DA,D | G,DD,DG,D | z2 D,2 D,2 | G,2 .G,,2 z2 |!mp! (^D2 E) z z2 | (E2 D) z z2 | z2 C2 C2 | %182
 D,3 z z2 |!mf! A,DD,DA,D | G,DD,DG,D | F,DD,DF,D | G,DD,DG,D | A,DD,DA,D | G,DD,DG,D | %189
 z2 D,2 D,2 | G,2 .G,,2 z2 |[K:C] .C,.C.C,.C.C,.C | .C,.C.C,.C.C,.C | .C,.C.C,.C.C,.C | %194
 .C,.C.C, z z2 | z2 .B,2 z2 | z2 .C,2 z2 | z2 z2 z2 | G,3 z z2 | .C,.C.C,.C.C,.C | %200
 .C,.C.C,.C.C,.C | .C,.C.C,.C.C,.C | .C,.C.C, z z2 | z2 .B,2 z2 | z2 .C2 z2 | z2 C2 z2 | %206
 z2 B,2 z2 | z2 ^F,2 z2 | z4 z2 ||[K:G] z2 ^CDCD | CDCD!p!G,D | A,DD,DA,D | G,DD,DG,D | F,DD,DF,D | %214
 G,DD,DG,D | A,DD,DA,D | G,DD,DG,D | z2 D,2 D,2 | G,2 .G,,2 z2 |!>(! (^D2 E)!>)! z z2 | %220
!>(! (E2 D)!>)! z z2 | z2 C2 C2 | D,3 z G,D |!mf! A,DD,DA,D | G,DD,DG,D | F,DD,DF,D | G,DD,DG,D | %227
 A,DD,DA,D | G,DD,DG,D | z2!f! D,2 D,2 | G,2 .G,,2 z2 |!mf! B,2 D2 B,2 | C2 C2 C2 | ^G,2 B,2 G,2 | %234
 A,2 C2 C2 |!>(! A,DF,DG,D | A,DF,DG,D!>)! |!p! .C,2 .D,2 .D,2 | G,2 z2 z G, |!mf! A,DF,DG,D | %240
!<(! A,DF,DG,D!<)! |!f! C2 D2 D2 | .G2 z2 !breath!D,2 | G,,2 z2 |] %244

